pix_core/i/portfolio.svg

<svg preserveAspectRatio="xMinYMid meet" viewBox="0 0 512 512" xmlns="http://www.w3.org/2000/svg"><path d="m184 48h144c4.4 0 8 3.6 8 8v40h-160v-40c0-4.4 3.6-8 8-8zm-56 8v40h-64c-35.3 0-64 28.7-64 64v96h192 128 192v-96c0-35.3-28.7-64-64-64h-64v-40c0-30.9-25.1-56-56-56h-144c-30.9 0-56 25.1-56 56zm384 232h-192v32c0 17.7-14.3 32-32 32h-64c-17.7 0-32-14.3-32-32v-32h-192v128c0 35.3 28.7 64 64 64h384c35.3 0 64-28.7 64-64z" fill="#fff"/></svg>

<svg xmlns="http://www.w3.org/2000/svg" viewBox="0 0 512 512" preserveAspectRatio="xMinYMid meet"><!--!Font Awesome Free 6.5.2 by @fontawesome - https://fontawesome.com License - https://fontawesome.com/license/free Copyright 2024 Fonticons, Inc.--><path fill="#fff" d="M184 48H328c4.4 0 8 3.6 8 8V96H176V56c0-4.4 3.6-8 8-8zm-56 8V96H64C28.7 96 0 124.7 0 160v96H192 320 512V160c0-35.3-28.7-64-64-64H384V56c0-30.9-25.1-56-56-56H184c-30.9 0-56 25.1-56 56zM512 288H320v32c0 17.7-14.3 32-32 32H224c-17.7 0-32-14.3-32-32V288H0V416c0 35.3 28.7 64 64 64H448c35.3 0 64-28.7 64-64V288z"/></svg>
